X:24
T:Reels 4 - Silver Spire
T:Reel
M:2/2
L:1/8
K:G
d|"G"gdBd gdBd|"C"cBcd "D"edd2|"G"gdBd gdBd|"C"ce"D"dc "G"BGG:|
d|"G"gdgb "D"afdf|"Em"geag "D"fddf| "C"edeg "G"dBGB|"D"FAdc "G"BGG:|
T: The Silver Spire
K: Dmaj
FE|"D"D2FE DFAc|"D"dcde fdAF|"G"G2BG "D/F#"FADF|"Em"GFED "A"CEA,C|
"D"D2FE DFAc|"D"dcde fdAF|"G"GABG "D"FEDF|"A"EDCE "D"D2:|
CB,|"A/E"A,B,CD EFGE|"Bm/F#"FDEF GABc|"G"dBBA Bcde|f2gf "A"e2 (3ABc|
"D"d2fd "A/C#"c2ec|"G"B3d "D"BAFA|"G"G2BG "D"FGAF|"A"EDCE "D"D2:|
%%newpage

